X:1
T:LORD, Our Lord, Your Glorious Name
T:Text: Psalm 8; vers. Psalter. 1912. alt. Tune: William F. Sherwin, 1877
T:77 77 4 with refrain EVENING PRAISE www.hymnary.org/text/lord_our_lord_your_glorious_name
T:LORD, Our Lord, Your Glorious Name
T:This hymn is in the public domain. You may freely use this score for personal and congregational worship. If you reproduce the score, please credit Hymnary.org as the source. 
T:This hymn is in the public domain. You may freely use this score for personal and congregational worship. If you reproduce the score, please credit Hymnary.org as the source. 
T:This hymn is in the public domain. You may freely use this score for personal and congregational worship. If you reproduce the score, please credit Hymnary.org as the source. 
Z:This hymn is in the public domain. You may freely use this score for personal and congregational worship. If you reproduce the score, please credit Hymnary.org as the source.
%%score ( 1 2 ) ( 3 4 )
L:1/8
M:6/8
K:G
V:1 treble nm="SOPRANO ALTO" snm="S. A."
V:2 treble 
V:3 bass nm="TENOR BASS" snm="T. B."
V:4 bass 
V:1
"^G""^1""^2""^3""^4""^5" G2 G"^C/G" G2 E |"^G" D2 ^C D3 | G2 G"^C/G" G2 E |"^G" D2 ^C D3 | %4
w: LORD our Lord, your|glo- rious name|all your won- drous|works pro- claim;|
w: In- fant voi- ces|chant your praise,|tell- ing of your|glo- rious ways;|
w: Moon and stars in|shin- ing height|night- ly tell their|Ma- ker's might;|
w: Who are we that|we should share|in your love and|ten- der care|
w: With do- mi- nion|crowned, we stand|o'er the crea- tures|of your hand;|
"^D7" F2 F"^G/D" G2 G |"^D" AGA"^G" B3 |1"^D7" c2 c"^G" B2 B |"^A7" ^cB"^D"c d2 B | A3"^A7" A3 | %9
w: in the heavens with|ra- * diant signs|ev- er- more your|glo- * ry shines. *||
w: weak- est means work|out * your will,|might- y e- ne-|mies * to still. *||
w: when I view the|heaven * a- far,|then I know how|small * we are. How|great your|
w: raised to an ex-|al- * ted height,|crowned with ho- nor|in * your sight! *||
w: all to us sub-|jec- * tion yield,|in the sea and|air * and field. *||
"^D" D3- D2 z ||"^Page 2""^G""^Refrain" G2 D G2 D | B2 A G3 | d3"^D7" c2 A | %13
w: ||||
w: ||||
w: name! *|LORD our Lord, in|all the earth,|how great your|
w: ||||
w: ||||
"^G""^LORD, Our Lord, Your Glorious Name" G3- G2 z |"^C" G2 F G2 E |"^G" D2 G B3 | %16
w: |||
w: |||
w: name! *|Yours the name of|match- less worth,|
w: |||
w: |||
"^D7" A2 ^G A2 F |"^G" G2 B d2 e |"^G/D" d3"^D7" F3 |"^G" G6 |] %20
w: ||||
w: ||||
w: ex- cel- lent in|all the earth. How|great your|name!|
w: ||||
w: ||||
V:2
 B,2 B, C2 C | B,2 ^A, B,3 | B,2 B, C2 C | B,2 ^A, B,3 | C2 C B,2 B, | CB,D D3 |1 D2 D D2 D | %7
 G2 G F2 D | D3 ^C3 | D3- D2 x || B,2 B, B,2 B, | D2 C B,3 | G3 F2 F | D3- D2 x | E2 ^D E2 C | %15
 B,2 D D3 | D2 D D2 D | D2 D G2 G | G3 D3 | D6 |] %20
V:3
 D,2 D, E,2 G, | G,2 E, D,3 | D,2 D, E,2 G, | G,2 E, (D,2 G,) | A,2 A, G,2 G, | F,G,F, G,3 |1 %6
 A,2 A, G,2 G, | A,2 A, A,2 G, | F,3 G,3 | F,3- F,2 z || G,2 G, D,2 G, | G,2 G, G,3 | B,3 A,2 C | %13
 B,3- B,2 z | G,2 A, G,2 G, | G,2 B, G,3 | C2 B, C2 A, | B,2 G, B,2 C | B,3 (A,2 C) | B,6 |] %20
V:4
 G,,2 G,, G,,2 G,, | G,,2 G,, G,,3 | G,,2 G,, G,,2 G,, | G,,2 G,, G,,3 | D,2 D, D,2 D, | %5
 D,2 D, G,3 |1 F,2 F, G,2 G, | E,2 A,, D,2 G,, | A,,3 A,,3 | D,3- D,2 x || G,,2 G,, G,,2 G,, | %11
 G,2 G, G,3 | D,3 D,2 D, | G,3- G,2 x | C,2 C, C,2 C, | G,,2 G, G,3 | D,2 D, D,2 D, | %17
 G,2 G, G,2 C, | D,3 D,3 | G,,6 |] %20

